X:117
T: ES STEHT EIN SCHLOSS IN OESTERREICH
N: E0061G
O: Europa, Mitteleuropa, Deutschland, Pommern, Tantow, Rosow
R: erzaehlendes Volks - Lied, Sage, Mord
M: 3/4
L: 1/8
K: D
D | DFA2GE | DFF2E
D | DFA2GF | F2E2z
A | AffcdF | Fee2z
d | cBAGBC | E2D2z

@@@ Tune index: 3767
